X:1
T:Sburban
T:Sburban Jungle
T:Michael Guy Bowman
C:Michael Guy Bowman
%%score { ( 1 4 ) | ( 2 3 ) } { 5 | 6 }
L:1/8
Q:1/2=70
M:4/4
K:C
V:1 treble nm="Piano" snm="Pno."
V:4 treble 
V:2 treble 
V:3 treble 
V:5 bass nm="Piano" snm="Pno."
V:6 bass-8 
V:1
 z8 | z8 | z8 | z8 | A/B/A/B/ c/A/B/c/ A/B/A/B/ d/A/B/d/ | A/B/A/B/ c/A/B/c/ A/B/A/B/ d/A/B/d/ | %6
 A/B/A/B/ c/A/B/c/ A/B/A/B/ d/A/B/d/ | A/B/A/B/ c/A/B/c/ A/B/A/B/ d/A/B/d/ | %8
 A/B/A/B/ c/A/B/c/ A/B/A/B/ d/A/B/d/ | A/B/A/B/ c/A/B/c/ A/B/A/B/ d/A/B/d/ | %10
 A/B/A/B/ c/A/B/c/ A/B/A/B/ d/A/B/d/ | A/B/A/B/ c/A/B/c/ A/B/A/B/ d/A/B/d/ | %12
 A/B/A/B/ c/A/B/c/ A/B/A/B/ d/A/B/d/ | A/B/A/B/ c/A/B/c/ A/B/A/B/ d/A/B/d/ | !>!a8 | %15
 !>!a3 !>!g3 !>!f2 | !>!e8 | !>!d3 !>!B3 !>!c2- | c8 | !>!a3 !>!g3 !>!f2 | !>!e8 | %21
 !>!d'3 !>!e'3 !>!a2- | a6 !>!a!>!b- | b6 !>!b!>!c'- | c'3 !>!b3 !>!a2- | a6 g2 | a6 z2 | z8 | z8 | %29
 z8 | z8 | z8 |] %32
V:2
!mf! A,E .[Bc]A,/[Ac]c/B/A/ A,A | A,E .[Bc]A,/.[Ac]c/B/A/ A,A | A,E .[Bc]A,/.[Ac]c/B/A/ A,A | %3
 A,E .[Bc]A,/.[Ac]c/B/A/ A,A | A,E .[Bc]A,/.[Ac]c/B/A/ A,A | A,E .[Bc]A,/.[Ac]c/B/A/ A,A | %6
 A,E .[Bc]A,/.[Ac]c/B/A/ A,A | A,E .[Bc]A,/.[Ac]c/B/A/ A,A | A,E .[Bc]A,/.[Ac]c/B/A/ A,A | %9
 A,E .[Bc]A,/.[Ac]c/B/A/ A,A | A,E .[Bc]A,/.[Ac]c/B/A/ A,A | A,E .[Bc]A,/.[Ac]c/B/A/ A,A | %12
 A,E .[Bc]A,/.[Ac]c/B/A/ A,A | A,E .[Bc]A,/.[Ac]c/B/A/ A,A | A,E .[Bc]A,/.[Ac]c/B/A/ A,A | %15
 A,E .[Bc]A,/.[Ac]c/B/A/ A,A | A,E .[Bc]A,/.[Ac]c/B/A/ A,A | A,E .[Bc]A,/.[Ac]c/B/A/ A,A | %18
 A,E .[Bc]A,/.[Ac]c/B/A/ A,A | A,E .[Bc]A,/.[Ac]c/B/A/ A,A | A,E .[Bc]A,/.[Ac]c/B/A/ A,A | %21
 A,E .[Bc]A,/.[Ac]c/B/A/ A,A | A,E .[Bc]A,/.[Ac]c/B/A/ A,A | A,E .[Bc]A,/.[Ac]c/B/A/ A,A | %24
 A,E .[Bc]A,/.[Ac]c/B/A/ A,A | A,E .[Bc]A,/.[Ac]c/B/A/ A,A | A,E .[Bc]A,/.[Ac]c/B/A/ A,A | %27
 A,E .[Bc]A,/.[Ac]c/B/A/ A,A | z8 | z8 | z8 | z8 |] %32
V:3
 x8 | x8 | x8 | x8 | x8 | x8 | x8 | x8 | z4 !>!C4 | !>!G,4 !>!G,3 !>!A,- | A,4 z4 | x8 | z4 !>!C4 | %13
 !>!D4 z2 !>!G,!>!A,- | A,4 z4 | x8 | z4 !>!C4 | !>!G,4 !>!G,3 !>!A,- | A,4 z4 | x8 | z4 !>!C4 | %21
 !>!D4 z2 !>!G,!>!A,- | A,4 z4 | x8 | x8 | x8 | x8 | x8 | x8 | x8 | x8 | x8 |] %32
V:4
 x8 | x8 | x8 | x8 | x8 | x8 | x8 | x8 | x8 | x8 | x8 | x8 | x8 | x8 | %14
 A/B/A/B/ c/A/B/c/ A/B/A/B/ d/A/B/d/ | A/B/A/B/ c/A/B/c/ A/B/A/B/ d/A/B/d/ | %16
 A/B/A/B/ c/A/B/c/ A/B/A/B/ d/A/B/d/ | A/B/A/B/ c/A/B/c/ A/B/A/B/ d/A/B/d/ | %18
 A/B/A/B/ c/A/B/c/ A/B/A/B/ d/A/B/d/ | A/B/A/B/ c/A/B/c/ A/B/A/B/ d/A/B/d/ | %20
 A/B/A/B/ c/A/B/c/ A/B/A/B/ d/A/B/d/ | A/B/A/B/ c/A/B/c/ A/B/A/B/ d/A/B/d/ | %22
 A/B/A/B/ c/A/B/c/ A/B/A/B/ d/A/B/d/ | A/B/A/B/ c/A/B/c/ A/B/A/B/ d/A/B/d/ | %24
 A/B/A/B/ c/A/B/c/ A/B/A/B/ d/A/B/d/ | A/B/A/B/ c/A/B/c/ A/B/A/B/ d/A/B/d/ | %26
 A/B/A/B/ c/A/B/c/ A/B/A/B/ d/A/B/d/ | A/B/A/B/ c/A/B/c/ A/B/A/B/ d/A/B/d/ | x8 | x8 | x8 | x8 |] %32
V:5
 z8 | z8 | A,,/A,,/B,,/A,,/ C,/A,,/A,,/B,,/ A,,/C,/A,,/A,,/ B,,/A,,/C,/A,,/ | %3
 A,,/A,,/B,,/A,,/ C,/A,,/A,,/B,,/ A,,/C,/A,,/A,,/ B,,/A,,/C,/A,,/ | %4
 A,,/A,,/B,,/A,,/ C,/A,,/A,,/B,,/ A,,/C,/A,,/A,,/ B,,/A,,/C,/A,,/ | %5
 A,,/A,,/B,,/A,,/ C,/A,,/A,,/B,,/ A,,/C,/A,,/A,,/ B,,/A,,/C,/A,,/ | %6
 A,,/A,,/B,,/A,,/ C,/A,,/A,,/B,,/ A,,/C,/A,,/A,,/ B,,/A,,/C,/A,,/ | %7
 A,,/A,,/B,,/A,,/ C,/A,,/A,,/B,,/ A,,/C,/A,,/A,,/ B,,/A,,/C,/A,,/ | %8
 A,,/A,,/B,,/A,,/ C,/A,,/A,,/B,,/ A,,/C,/A,,/A,,/ B,,/A,,/C,/A,,/ | %9
 A,,/A,,/B,,/A,,/ C,/A,,/A,,/B,,/ A,,/C,/A,,/A,,/ B,,/A,,/C,/A,,/ | %10
 A,,/A,,/B,,/A,,/ C,/A,,/A,,/B,,/ A,,/C,/A,,/A,,/ B,,/A,,/C,/A,,/ | %11
 A,,/A,,/B,,/A,,/ C,/A,,/A,,/B,,/ A,,/C,/A,,/A,,/ B,,/A,,/C,/A,,/ | %12
 A,,/A,,/B,,/A,,/ C,/A,,/A,,/B,,/ A,,/C,/A,,/A,,/ B,,/A,,/C,/A,,/ | %13
 A,,/A,,/B,,/A,,/ C,/A,,/A,,/B,,/ A,,/C,/A,,/A,,/ B,,/A,,/C,/A,,/ | %14
 A,,/A,,/B,,/A,,/ C,/A,,/A,,/B,,/ A,,/C,/A,,/A,,/ B,,/A,,/C,/A,,/ | %15
 A,,/A,,/B,,/A,,/ C,/A,,/A,,/B,,/ A,,/C,/A,,/A,,/ B,,/A,,/C,/A,,/ | %16
 A,,/A,,/B,,/A,,/ C,/A,,/A,,/B,,/ A,,/C,/A,,/A,,/ B,,/A,,/C,/A,,/ | %17
 A,,/A,,/B,,/A,,/ C,/A,,/A,,/B,,/ A,,/C,/A,,/A,,/ B,,/A,,/C,/A,,/ | %18
 A,,/A,,/B,,/A,,/ C,/A,,/A,,/B,,/ A,,/C,/A,,/A,,/ B,,/A,,/C,/A,,/ | %19
 A,,/A,,/B,,/A,,/ C,/A,,/A,,/B,,/ A,,/C,/A,,/A,,/ B,,/A,,/C,/A,,/ | %20
 A,,/A,,/B,,/A,,/ C,/A,,/A,,/B,,/ A,,/C,/A,,/A,,/ B,,/A,,/C,/A,,/ | %21
 A,,/A,,/B,,/A,,/ C,/A,,/A,,/B,,/ A,,/C,/A,,/A,,/ B,,/A,,/C,/A,,/ | %22
 A,,/A,,/B,,/A,,/ C,/A,,/A,,/B,,/ A,,/C,/A,,/A,,/ B,,/A,,/C,/A,,/ | %23
 A,,/A,,/B,,/A,,/ C,/A,,/A,,/B,,/ A,,/C,/A,,/A,,/ B,,/A,,/C,/A,,/ | %24
 A,,/A,,/B,,/A,,/ C,/A,,/A,,/B,,/ A,,/C,/A,,/A,,/ B,,/A,,/C,/A,,/ | %25
 A,,/A,,/B,,/A,,/ C,/A,,/A,,/B,,/ A,,/C,/A,,/A,,/ B,,/A,,/C,/A,,/ | %26
 A,,/A,,/B,,/A,,/ C,/A,,/A,,/B,,/ A,,/C,/A,,/A,,/ B,,/A,,/C,/A,,/ | %27
 A,,/A,,/B,,/A,,/ C,/A,,/A,,/B,,/ A,,/C,/A,,/A,,/ B,,/A,,/C,/A,,/ | z8 | z8 | z8 | z8 |] %32
V:6
 z8 | z8 | z8 | z8 | z8 | z8 | !>!A,,8- | A,,4 !>!B,,4 | !>!C,8 | !>!G,,8 | !>!A,,8- | %11
 A,,4 !>!B,,4 | !>!C,8 | !>!D,4 !>!G,4 | A,,8- | A,,4 !>!B,,4 | !>!C,8 | !>!G,,8 | !>!A,,8- | %19
 A,,4 !>!B,,4 | !>!C,8 | !>!D,4 !>!G,4 | !>!F,6 !>![F,,F,]!>![G,,G,]- | [G,,G,]6 !>![G,,G,]2 | %24
 !>![A,,A,]3 !>![E,,E,]3 !>![F,,F,]2- | [F,,F,]8 | !>![F,,F,]6 z2 | z8 | z8 | z8 | z8 | z8 |] %32

